report_00007_2020-12-11T15:55:29.892Z/render-blocking-resources/comparison/line/0_vs_1.svg

<svg width="640" height="500" xmlns="http://www.w3.org/2000/svg" xmlns:xlink="http://www.w3.org/1999/xlink"><path fill="#fff" d="M0 0h640v500H0z"/><defs><path id="d" stroke-width=".222" stroke="currentColor" d="M-1-1h2v2h-2z"/><path id="b" stroke-width=".222" stroke="currentColor" d="M0-1.33l-1.33 2h2.66z"/><path id="f" stroke-width=".222" stroke="currentColor" d="M0 1.33L1.265.411.782-1.067l-1.564-.009-.483 1.487z"/><use xlink:href="#b" id="c" stroke="currentColor" transform="rotate(180)"/><use xlink:href="#d" id="e" stroke="currentColor" transform="rotate(45)"/><circle id="a" stroke-width=".222" stroke="currentColor" cx="0" cy="0" r="1"/></defs><g fill="none" color="#000" stroke="currentColor"><path stroke="#000" d="M62.2 437.8h9m543.8 0h-9"/><text transform="translate(53.9 441.7)" stroke="none" fill="#000" font-family="Arial" font-size="12" text-anchor="end"><tspan>0</tspan></text></g><g fill="none" color="#000" stroke="currentColor"><path stroke="#000" d="M62.2 370.3h9m543.8 0h-9"/><text transform="translate(53.9 374.2)" stroke="none" fill="#000" font-family="Arial" font-size="12" text-anchor="end"><tspan>200</tspan></text></g><g fill="none" color="#000" stroke="currentColor"><path stroke="#000" d="M62.2 302.9h9m543.8 0h-9"/><text transform="translate(53.9 306.8)" stroke="none" fill="#000" font-family="Arial" font-size="12" text-anchor="end"><tspan>400</tspan></text></g><g fill="none" color="#000" stroke="currentColor"><path stroke="#000" d="M62.2 235.4h9m543.8 0h-9"/><text transform="translate(53.9 239.3)" stroke="none" fill="#000" font-family="Arial" font-size="12" text-anchor="end"><tspan>600</tspan></text></g><g fill="none" color="#000" stroke="currentColor"><path stroke="#000" d="M62.2 168h9m543.8 0h-9"/><text transform="translate(53.9 171.9)" stroke="none" fill="#000" font-family="Arial" font-size="12" text-anchor="end"><tspan>800</tspan></text></g><g fill="none" color="#000" stroke="currentColor"><path stroke="#000" d="M62.2 100.5h9m543.8 0h-9"/><text transform="translate(53.9 104.4)" stroke="none" fill="#000" font-family="Arial" font-size="12" text-anchor="end"><tspan>1000</tspan></text></g><g fill="none" color="#000" stroke="currentColor"><path stroke="#000" d="M62.2 33.1h9m543.8 0h-9"/><text transform="translate(53.9 37)" stroke="none" fill="#000" font-family="Arial" font-size="12" text-anchor="end"><tspan>1200</tspan></text></g><g fill="none" color="#000" stroke="currentColor"><path stroke="#000" d="M62.2 446v-9m0-418.9v9"/><text transform="translate(62.2 467.9)" stroke="none" fill="#000" font-family="Arial" font-size="12" text-anchor="middle"><tspan>0</tspan></text></g><g fill="none" color="#000" stroke="currentColor"><path stroke="#000" d="M118 446v-9m0-418.9v9"/><text transform="translate(118 467.9)" stroke="none" fill="#000" font-family="Arial" font-size="12" text-anchor="middle"><tspan>10</tspan></text></g><g fill="none" color="#000" stroke="currentColor"><path stroke="#000" d="M173.9 446v-9m0-418.9v9"/><text transform="translate(173.9 467.9)" stroke="none" fill="#000" font-family="Arial" font-size="12" text-anchor="middle"><tspan>20</tspan></text></g><g fill="none" color="#000" stroke="currentColor"><path stroke="#000" d="M229.7 446v-9m0-418.9v9"/><text transform="translate(229.7 467.9)" stroke="none" fill="#000" font-family="Arial" font-size="12" text-anchor="middle"><tspan>30</tspan></text></g><g fill="none" color="#000" stroke="currentColor"><path stroke="#000" d="M285.6 446v-9m0-418.9v9"/><text transform="translate(285.6 467.9)" stroke="none" fill="#000" font-family="Arial" font-size="12" text-anchor="middle"><tspan>40</tspan></text></g><g fill="none" color="#000" stroke="currentColor"><path stroke="#000" d="M341.4 446v-9m0-418.9v9"/><text transform="translate(341.4 467.9)" stroke="none" fill="#000" font-family="Arial" font-size="12" text-anchor="middle"><tspan>50</tspan></text></g><g fill="none" color="#000" stroke="currentColor"><path stroke="#000" d="M397.2 446v-9m0-418.9v9"/><text transform="translate(397.2 467.9)" stroke="none" fill="#000" font-family="Arial" font-size="12" text-anchor="middle"><tspan>60</tspan></text></g><g fill="none" color="#000" stroke="currentColor"><path stroke="#000" d="M453.1 446v-9m0-418.9v9"/><text transform="translate(453.1 467.9)" stroke="none" fill="#000" font-family="Arial" font-size="12" text-anchor="middle"><tspan>70</tspan></text></g><g fill="none" color="#000" stroke="currentColor"><path stroke="#000" d="M508.9 446v-9m0-418.9v9"/><text transform="translate(508.9 467.9)" stroke="none" fill="#000" font-family="Arial" font-size="12" text-anchor="middle"><tspan>80</tspan></text></g><g fill="none" color="#000" stroke="currentColor"><path stroke="#000" d="M564.7 446v-9m0-418.9v9"/><text transform="translate(564.7 467.9)" stroke="none" fill="#000" font-family="Arial" font-size="12" text-anchor="middle"><tspan>90</tspan></text></g><path stroke="#000" d="M62.2 18.1V446H615V18.1H62.2z" fill="none" color="#000"/><text transform="translate(279.8 485.9)" stroke="none" fill="#000" font-family="Arial" font-size="12" text-anchor="end" color="#000"><tspan>empty</tspan></text><path stroke="#9400D3" d="M288.1 482h42.2M62.2 437.8H615" fill="none" color="#000"/><text transform="translate(380.1 485.9)" stroke="none" fill="#000" font-family="Arial" font-size="12" text-anchor="end" color="#000"><tspan>pages</tspan></text><path stroke="#009E73" d="M388.4 482h42.2M62.2 28.7l5.6 66.8 5.6 3.7L79 88l5.5 12.5 5.6-.3 5.6-.4 5.6-.3 5.6-1.7 5.6 3.7 5.5 1.4 5.6-65.8 5.6 61.7 5.6 2.7 5.6-3.7L146 85l5.5 8.1 5.6 6.7 5.6 3.1 5.6-6.1 5.6 3 5.6-1.6 5.5-71.9 5.6 55 5.6 16.9 5.6 3.7 5.6-6.1 5.6 2.4 5.5-.4 5.6 1.7 5.6 1.4h5.6l5.6-2.1 5.6 1.7 5.6-31.7 5.5 31 5.6.7 5.6 1.4 5.6-.7 5.6 1.7 5.6-2.4 5.5-2 5.6 3.4 5.6-20.3 5.6 19.3 5.6-26 5.6 22.9 5.5 5.4 5.6-3 5.6 3.4 5.6-61.8 5.6 48.9 5.6 5.4 5.5 5.4 5.6-2 5.6 1.7 5.6-74.5 5.6 74.8 5.6-2.3 5.5 3 5.6-25.6 5.6 23.6 5.6 1.7 5.6-2.4 5.6 3 5.5-3 5.6 2.4 5.6.3 5.6-37.8 5.6 36.5 5.6 1 5.6-7.1h5.5l5.6 8.8 5.6-3.8 5.6-2.3 5.6 4.4 5.6-.4 5.5-3.3 5.6-37.8 5.6 41.1 5.6-1.7 5.6 1.4 5.6 1.3h5.5l5.6 88.4 5.6-90.7 5.6.7 5.6 1 5.6-71.9 5.5 68.2 5.6 3 5.6.3 5.6-1.3 5.6 1.3 5.6-21.9 5.5 19.2 5.6.7h5.6l5.6-1.7" fill="none" color="#000"/><g fill="none" color="#000" stroke="currentColor"><path stroke="#000" d="M62.2 18.1V446H615V18.1H62.2z"/></g></svg>

<?xml version="1.0" encoding="utf-8"  standalone="no"?>
<svg 
 width="640" height="500"
 viewBox="0 0 640 500"
 xmlns="http://www.w3.org/2000/svg"
 xmlns:xlink="http://www.w3.org/1999/xlink"
>

<title>Gnuplot</title>
<desc>Produced by GNUPLOT 5.4 patchlevel 0 </desc>

<g id="gnuplot_canvas">

<rect x="0" y="0" width="640" height="500" fill="#ffffff"/>
<defs>

	<circle id='gpDot' r='0.5' stroke-width='0.5' stroke='currentColor'/>
	<path id='gpPt0' stroke-width='0.222' stroke='currentColor' d='M-1,0 h2 M0,-1 v2'/>
	<path id='gpPt1' stroke-width='0.222' stroke='currentColor' d='M-1,-1 L1,1 M1,-1 L-1,1'/>
	<path id='gpPt2' stroke-width='0.222' stroke='currentColor' d='M-1,0 L1,0 M0,-1 L0,1 M-1,-1 L1,1 M-1,1 L1,-1'/>
	<rect id='gpPt3' stroke-width='0.222' stroke='currentColor' x='-1' y='-1' width='2' height='2'/>
	<rect id='gpPt4' stroke-width='0.222' stroke='currentColor' fill='currentColor' x='-1' y='-1' width='2' height='2'/>
	<circle id='gpPt5' stroke-width='0.222' stroke='currentColor' cx='0' cy='0' r='1'/>
	<use xlink:href='#gpPt5' id='gpPt6' fill='currentColor' stroke='none'/>
	<path id='gpPt7' stroke-width='0.222' stroke='currentColor' d='M0,-1.33 L-1.33,0.67 L1.33,0.67 z'/>
	<use xlink:href='#gpPt7' id='gpPt8' fill='currentColor' stroke='none'/>
	<use xlink:href='#gpPt7' id='gpPt9' stroke='currentColor' transform='rotate(180)'/>
	<use xlink:href='#gpPt9' id='gpPt10' fill='currentColor' stroke='none'/>
	<use xlink:href='#gpPt3' id='gpPt11' stroke='currentColor' transform='rotate(45)'/>
	<use xlink:href='#gpPt11' id='gpPt12' fill='currentColor' stroke='none'/>
	<path id='gpPt13' stroke-width='0.222' stroke='currentColor' d='M0,1.330 L1.265,0.411 L0.782,-1.067 L-0.782,-1.076 L-1.265,0.411 z'/>
	<use xlink:href='#gpPt13' id='gpPt14' fill='currentColor' stroke='none'/>
	<filter id='textbox' filterUnits='objectBoundingBox' x='0' y='0' height='1' width='1'>
	  <feFlood flood-color='#FFFFFF' flood-opacity='1' result='bgnd'/>
	  <feComposite in='SourceGraphic' in2='bgnd' operator='atop'/>
	</filter>
	<filter id='greybox' filterUnits='objectBoundingBox' x='0' y='0' height='1' width='1'>
	  <feFlood flood-color='lightgrey' flood-opacity='1' result='grey'/>
	  <feComposite in='SourceGraphic' in2='grey' operator='atop'/>
	</filter>
</defs>
<g fill="none" color="#FFFFFF" stroke="black" stroke-width="1.00" stroke-linecap="butt" stroke-linejoin="miter">
</g>
<g fill="none" color="black" stroke="currentColor" stroke-width="1.00" stroke-linecap="butt" stroke-linejoin="miter">
	<path stroke='black'  d='M62.2,437.8 L71.2,437.8 M615.0,437.8 L606.0,437.8  '/>	<g transform="translate(53.9,441.7)" stroke="none" fill="black" font-family="Arial" font-size="12.00"  text-anchor="end">
		<text><tspan font-family="Arial" > 0</tspan></text>
	</g>
</g>
<g fill="none" color="black" stroke="currentColor" stroke-width="1.00" stroke-linecap="butt" stroke-linejoin="miter">
	<path stroke='black'  d='M62.2,370.3 L71.2,370.3 M615.0,370.3 L606.0,370.3  '/>	<g transform="translate(53.9,374.2)" stroke="none" fill="black" font-family="Arial" font-size="12.00"  text-anchor="end">
		<text><tspan font-family="Arial" > 200</tspan></text>
	</g>
</g>
<g fill="none" color="black" stroke="currentColor" stroke-width="1.00" stroke-linecap="butt" stroke-linejoin="miter">
	<path stroke='black'  d='M62.2,302.9 L71.2,302.9 M615.0,302.9 L606.0,302.9  '/>	<g transform="translate(53.9,306.8)" stroke="none" fill="black" font-family="Arial" font-size="12.00"  text-anchor="end">
		<text><tspan font-family="Arial" > 400</tspan></text>
	</g>
</g>
<g fill="none" color="black" stroke="currentColor" stroke-width="1.00" stroke-linecap="butt" stroke-linejoin="miter">
	<path stroke='black'  d='M62.2,235.4 L71.2,235.4 M615.0,235.4 L606.0,235.4  '/>	<g transform="translate(53.9,239.3)" stroke="none" fill="black" font-family="Arial" font-size="12.00"  text-anchor="end">
		<text><tspan font-family="Arial" > 600</tspan></text>
	</g>
</g>
<g fill="none" color="black" stroke="currentColor" stroke-width="1.00" stroke-linecap="butt" stroke-linejoin="miter">
	<path stroke='black'  d='M62.2,168.0 L71.2,168.0 M615.0,168.0 L606.0,168.0  '/>	<g transform="translate(53.9,171.9)" stroke="none" fill="black" font-family="Arial" font-size="12.00"  text-anchor="end">
		<text><tspan font-family="Arial" > 800</tspan></text>
	</g>
</g>
<g fill="none" color="black" stroke="currentColor" stroke-width="1.00" stroke-linecap="butt" stroke-linejoin="miter">
	<path stroke='black'  d='M62.2,100.5 L71.2,100.5 M615.0,100.5 L606.0,100.5  '/>	<g transform="translate(53.9,104.4)" stroke="none" fill="black" font-family="Arial" font-size="12.00"  text-anchor="end">
		<text><tspan font-family="Arial" > 1000</tspan></text>
	</g>
</g>
<g fill="none" color="black" stroke="currentColor" stroke-width="1.00" stroke-linecap="butt" stroke-linejoin="miter">
	<path stroke='black'  d='M62.2,33.1 L71.2,33.1 M615.0,33.1 L606.0,33.1  '/>	<g transform="translate(53.9,37.0)" stroke="none" fill="black" font-family="Arial" font-size="12.00"  text-anchor="end">
		<text><tspan font-family="Arial" > 1200</tspan></text>
	</g>
</g>
<g fill="none" color="black" stroke="currentColor" stroke-width="1.00" stroke-linecap="butt" stroke-linejoin="miter">
	<path stroke='black'  d='M62.2,446.0 L62.2,437.0 M62.2,18.1 L62.2,27.1  '/>	<g transform="translate(62.2,467.9)" stroke="none" fill="black" font-family="Arial" font-size="12.00"  text-anchor="middle">
		<text><tspan font-family="Arial" > 0</tspan></text>
	</g>
</g>
<g fill="none" color="black" stroke="currentColor" stroke-width="1.00" stroke-linecap="butt" stroke-linejoin="miter">
	<path stroke='black'  d='M118.0,446.0 L118.0,437.0 M118.0,18.1 L118.0,27.1  '/>	<g transform="translate(118.0,467.9)" stroke="none" fill="black" font-family="Arial" font-size="12.00"  text-anchor="middle">
		<text><tspan font-family="Arial" > 10</tspan></text>
	</g>
</g>
<g fill="none" color="black" stroke="currentColor" stroke-width="1.00" stroke-linecap="butt" stroke-linejoin="miter">
	<path stroke='black'  d='M173.9,446.0 L173.9,437.0 M173.9,18.1 L173.9,27.1  '/>	<g transform="translate(173.9,467.9)" stroke="none" fill="black" font-family="Arial" font-size="12.00"  text-anchor="middle">
		<text><tspan font-family="Arial" > 20</tspan></text>
	</g>
</g>
<g fill="none" color="black" stroke="currentColor" stroke-width="1.00" stroke-linecap="butt" stroke-linejoin="miter">
	<path stroke='black'  d='M229.7,446.0 L229.7,437.0 M229.7,18.1 L229.7,27.1  '/>	<g transform="translate(229.7,467.9)" stroke="none" fill="black" font-family="Arial" font-size="12.00"  text-anchor="middle">
		<text><tspan font-family="Arial" > 30</tspan></text>
	</g>
</g>
<g fill="none" color="black" stroke="currentColor" stroke-width="1.00" stroke-linecap="butt" stroke-linejoin="miter">
	<path stroke='black'  d='M285.6,446.0 L285.6,437.0 M285.6,18.1 L285.6,27.1  '/>	<g transform="translate(285.6,467.9)" stroke="none" fill="black" font-family="Arial" font-size="12.00"  text-anchor="middle">
		<text><tspan font-family="Arial" > 40</tspan></text>
	</g>
</g>
<g fill="none" color="black" stroke="currentColor" stroke-width="1.00" stroke-linecap="butt" stroke-linejoin="miter">
	<path stroke='black'  d='M341.4,446.0 L341.4,437.0 M341.4,18.1 L341.4,27.1  '/>	<g transform="translate(341.4,467.9)" stroke="none" fill="black" font-family="Arial" font-size="12.00"  text-anchor="middle">
		<text><tspan font-family="Arial" > 50</tspan></text>
	</g>
</g>
<g fill="none" color="black" stroke="currentColor" stroke-width="1.00" stroke-linecap="butt" stroke-linejoin="miter">
	<path stroke='black'  d='M397.2,446.0 L397.2,437.0 M397.2,18.1 L397.2,27.1  '/>	<g transform="translate(397.2,467.9)" stroke="none" fill="black" font-family="Arial" font-size="12.00"  text-anchor="middle">
		<text><tspan font-family="Arial" > 60</tspan></text>
	</g>
</g>
<g fill="none" color="black" stroke="currentColor" stroke-width="1.00" stroke-linecap="butt" stroke-linejoin="miter">
	<path stroke='black'  d='M453.1,446.0 L453.1,437.0 M453.1,18.1 L453.1,27.1  '/>	<g transform="translate(453.1,467.9)" stroke="none" fill="black" font-family="Arial" font-size="12.00"  text-anchor="middle">
		<text><tspan font-family="Arial" > 70</tspan></text>
	</g>
</g>
<g fill="none" color="black" stroke="currentColor" stroke-width="1.00" stroke-linecap="butt" stroke-linejoin="miter">
	<path stroke='black'  d='M508.9,446.0 L508.9,437.0 M508.9,18.1 L508.9,27.1  '/>	<g transform="translate(508.9,467.9)" stroke="none" fill="black" font-family="Arial" font-size="12.00"  text-anchor="middle">
		<text><tspan font-family="Arial" > 80</tspan></text>
	</g>
</g>
<g fill="none" color="black" stroke="currentColor" stroke-width="1.00" stroke-linecap="butt" stroke-linejoin="miter">
	<path stroke='black'  d='M564.7,446.0 L564.7,437.0 M564.7,18.1 L564.7,27.1  '/>	<g transform="translate(564.7,467.9)" stroke="none" fill="black" font-family="Arial" font-size="12.00"  text-anchor="middle">
		<text><tspan font-family="Arial" > 90</tspan></text>
	</g>
</g>
<g fill="none" color="black" stroke="currentColor" stroke-width="1.00" stroke-linecap="butt" stroke-linejoin="miter">
</g>
<g fill="none" color="black" stroke="currentColor" stroke-width="1.00" stroke-linecap="butt" stroke-linejoin="miter">
	<path stroke='black'  d='M62.2,18.1 L62.2,446.0 L615.0,446.0 L615.0,18.1 L62.2,18.1 Z  '/></g>
<g fill="none" color="black" stroke="currentColor" stroke-width="1.00" stroke-linecap="butt" stroke-linejoin="miter">
</g>
	<g id="gnuplot_plot_1" ><title>empty</title>
<g fill="none" color="black" stroke="currentColor" stroke-width="1.00" stroke-linecap="butt" stroke-linejoin="miter">
	<g transform="translate(279.8,485.9)" stroke="none" fill="black" font-family="Arial" font-size="12.00"  text-anchor="end">
		<text><tspan font-family="Arial" >empty</tspan></text>
	</g>
</g>
<g fill="none" color="black" stroke="currentColor" stroke-width="1.00" stroke-linecap="butt" stroke-linejoin="miter">
	<path stroke='rgb(148,   0, 211)'  d='M288.1,482.0 L330.3,482.0 M62.2,437.8 L67.8,437.8 L73.4,437.8 L79.0,437.8 L84.5,437.8 L90.1,437.8
		L95.7,437.8 L101.3,437.8 L106.9,437.8 L112.5,437.8 L118.0,437.8 L123.6,437.8 L129.2,437.8 L134.8,437.8
		L140.4,437.8 L146.0,437.8 L151.5,437.8 L157.1,437.8 L162.7,437.8 L168.3,437.8 L173.9,437.8 L179.5,437.8
		L185.0,437.8 L190.6,437.8 L196.2,437.8 L201.8,437.8 L207.4,437.8 L213.0,437.8 L218.5,437.8 L224.1,437.8
		L229.7,437.8 L235.3,437.8 L240.9,437.8 L246.5,437.8 L252.1,437.8 L257.6,437.8 L263.2,437.8 L268.8,437.8
		L274.4,437.8 L280.0,437.8 L285.6,437.8 L291.1,437.8 L296.7,437.8 L302.3,437.8 L307.9,437.8 L313.5,437.8
		L319.1,437.8 L324.6,437.8 L330.2,437.8 L335.8,437.8 L341.4,437.8 L347.0,437.8 L352.6,437.8 L358.1,437.8
		L363.7,437.8 L369.3,437.8 L374.9,437.8 L380.5,437.8 L386.1,437.8 L391.6,437.8 L397.2,437.8 L402.8,437.8
		L408.4,437.8 L414.0,437.8 L419.6,437.8 L425.1,437.8 L430.7,437.8 L436.3,437.8 L441.9,437.8 L447.5,437.8
		L453.1,437.8 L458.7,437.8 L464.2,437.8 L469.8,437.8 L475.4,437.8 L481.0,437.8 L486.6,437.8 L492.2,437.8
		L497.7,437.8 L503.3,437.8 L508.9,437.8 L514.5,437.8 L520.1,437.8 L525.7,437.8 L531.2,437.8 L536.8,437.8
		L542.4,437.8 L548.0,437.8 L553.6,437.8 L559.2,437.8 L564.7,437.8 L570.3,437.8 L575.9,437.8 L581.5,437.8
		L587.1,437.8 L592.7,437.8 L598.2,437.8 L603.8,437.8 L609.4,437.8 L615.0,437.8  '/></g>
	</g>
	<g id="gnuplot_plot_2" ><title>pages</title>
<g fill="none" color="black" stroke="currentColor" stroke-width="1.00" stroke-linecap="butt" stroke-linejoin="miter">
	<g transform="translate(380.1,485.9)" stroke="none" fill="black" font-family="Arial" font-size="12.00"  text-anchor="end">
		<text><tspan font-family="Arial" >pages</tspan></text>
	</g>
</g>
<g fill="none" color="black" stroke="currentColor" stroke-width="1.00" stroke-linecap="butt" stroke-linejoin="miter">
	<path stroke='rgb(  0, 158, 115)'  d='M388.4,482.0 L430.6,482.0 M62.2,28.7 L67.8,95.5 L73.4,99.2 L79.0,88.0 L84.5,100.5 L90.1,100.2
		L95.7,99.8 L101.3,99.5 L106.9,97.8 L112.5,101.5 L118.0,102.9 L123.6,37.1 L129.2,98.8 L134.8,101.5
		L140.4,97.8 L146.0,85.0 L151.5,93.1 L157.1,99.8 L162.7,102.9 L168.3,96.8 L173.9,99.8 L179.5,98.2
		L185.0,26.3 L190.6,81.3 L196.2,98.2 L201.8,101.9 L207.4,95.8 L213.0,98.2 L218.5,97.8 L224.1,99.5
		L229.7,100.9 L235.3,100.9 L240.9,98.8 L246.5,100.5 L252.1,68.8 L257.6,99.8 L263.2,100.5 L268.8,101.9
		L274.4,101.2 L280.0,102.9 L285.6,100.5 L291.1,98.5 L296.7,101.9 L302.3,81.6 L307.9,100.9 L313.5,74.9
		L319.1,97.8 L324.6,103.2 L330.2,100.2 L335.8,103.6 L341.4,41.8 L347.0,90.7 L352.6,96.1 L358.1,101.5
		L363.7,99.5 L369.3,101.2 L374.9,26.7 L380.5,101.5 L386.1,99.2 L391.6,102.2 L397.2,76.6 L402.8,100.2
		L408.4,101.9 L414.0,99.5 L419.6,102.5 L425.1,99.5 L430.7,101.9 L436.3,102.2 L441.9,64.4 L447.5,100.9
		L453.1,101.9 L458.7,94.8 L464.2,94.8 L469.8,103.6 L475.4,99.8 L481.0,97.5 L486.6,101.9 L492.2,101.5
		L497.7,98.2 L503.3,60.4 L508.9,101.5 L514.5,99.8 L520.1,101.2 L525.7,102.5 L531.2,102.5 L536.8,190.9
		L542.4,100.2 L548.0,100.9 L553.6,101.9 L559.2,30.0 L564.7,98.2 L570.3,101.2 L575.9,101.5 L581.5,100.2
		L587.1,101.5 L592.7,79.6 L598.2,98.8 L603.8,99.5 L609.4,99.5 L615.0,97.8  '/></g>
	</g>
<g fill="none" color="#FFFFFF" stroke="rgb(  0, 158, 115)" stroke-width="2.00" stroke-linecap="butt" stroke-linejoin="miter">
</g>
<g fill="none" color="black" stroke="currentColor" stroke-width="2.00" stroke-linecap="butt" stroke-linejoin="miter">
</g>
<g fill="none" color="black" stroke="black" stroke-width="1.00" stroke-linecap="butt" stroke-linejoin="miter">
</g>
<g fill="none" color="black" stroke="currentColor" stroke-width="1.00" stroke-linecap="butt" stroke-linejoin="miter">
	<path stroke='black'  d='M62.2,18.1 L62.2,446.0 L615.0,446.0 L615.0,18.1 L62.2,18.1 Z  '/></g>
<g fill="none" color="black" stroke="currentColor" stroke-width="1.00" stroke-linecap="butt" stroke-linejoin="miter">
</g>
</g>
</svg>
